X:47
T:Earl's Chair, The
M:C|
E:7
R:reel
K:D
A|B2 dB BAFA|B2 dB BAFB|AF ~F2 DF ~F2|AFdB ADFA|B3d BAFA|~B2 dB BAFB|AFAB dcdf|edef d3:|
f|:~e3 f d2 (3Bcd |edef dBAB|~e3f d3e|fedB ADFA|~e3 f dB~B2|gB ~B2 defg|afbf afeg|fedB ADFA:|
<end>
<start>
